svgs/regular/italic.svg

<svg xmlns="http://www.w3.org/2000/svg" viewBox="0 0 384 512"><!-- Font Awesome Pro 6.0.0-alpha2 by @fontawesome - https://fontawesome.com License - https://fontawesome.com/license (Commercial License) --><path d="M384 56C384 69.25 373.25 80 360 80H292.016L145.078 432H232C245.25 432 256 442.75 256 456S245.25 480 232 480H24C10.75 480 0 469.25 0 456S10.75 432 24 432H94.596L241.535 80H152C138.75 80 128 69.25 128 56S138.75 32 152 32H360C373.25 32 384 42.75 384 56Z"/></svg>

<svg xmlns="http://www.w3.org/2000/svg" viewBox="0 0 384 512"><!--! Font Awesome Pro 6.4.0 by @fontawesome - https://fontawesome.com License - https://fontawesome.com/license (Commercial License) Copyright 2023 Fonticons, Inc. --><path d="M128 56c0-13.3 10.7-24 24-24H360c13.3 0 24 10.7 24 24s-10.7 24-24 24H291.3L144.7 432H232c13.3 0 24 10.7 24 24s-10.7 24-24 24H24c-13.3 0-24-10.7-24-24s10.7-24 24-24H92.7L239.3 80H152c-13.3 0-24-10.7-24-24z"/></svg>
